X:1
T:The Butcher's boy
M:4/4
L:1/4
K:G
 D| G3/2 D/2 G A|(3G3.99999962500005/11.9999985000002G3.99999962500005/11.9999985000002F3.99999962500005/11.9999985000002G3.99999962500005/11.9999985000002F3.99999962500005/11.9999985000002F3.99999962500005/11.9999985000002 E D c|\
 B/2B/2 G B d| c3|B/2-c/2| d3/2 G/2 B3/2 A/2| G G D =F| E C D A| G3||\
